storage/app/icons/phosphoricons/bold/list-plus-bold.svg

<svg xmlns="http://www.w3.org/2000/svg" fill="currentColor" viewBox="0 0 256 256"><path d="M28 64a12 12 0 0 1 12-12h176a12 12 0 0 1 0 24H40a12 12 0 0 1-12-12m12 76h176a12 12 0 0 0 0-24H40a12 12 0 0 0 0 24m104 40H40a12 12 0 0 0 0 24h104a12 12 0 0 0 0-24m88 0h-12v-12a12 12 0 0 0-24 0v12h-12a12 12 0 0 0 0 24h12v12a12 12 0 0 0 24 0v-12h12a12 12 0 0 0 0-24"/></svg>

<svg xmlns="http://www.w3.org/2000/svg" viewBox="0 0 256 256" fill="currentColor"><path d="M28,64A12,12,0,0,1,40,52H216a12,12,0,0,1,0,24H40A12,12,0,0,1,28,64Zm12,76H216a12,12,0,0,0,0-24H40a12,12,0,0,0,0,24Zm104,40H40a12,12,0,0,0,0,24H144a12,12,0,0,0,0-24Zm88,0H220V168a12,12,0,0,0-24,0v12H184a12,12,0,0,0,0,24h12v12a12,12,0,0,0,24,0V204h12a12,12,0,0,0,0-24Z"/></svg>
